file/gillette.svg

<svg clip-rule="evenodd" fill-rule="evenodd" stroke-linejoin="round" stroke-miterlimit="1.41421" viewBox="0 0 560 400" xmlns="http://www.w3.org/2000/svg"><path d="m41.968 41.829-4.569 19.19h15.652c-1.515 10.297-26.887 14.736-23.016-10.197 2.722-17.438 24.552-26.84 29.378-13.341l26.968-6.757c-3.885-16.783-18.738-25.086-35.066-25.086-22.468-.009-47.731 15.706-51.048 46.636-2.785 25.946 16.662 40.217 39.24 39.845 16.054-.276 28.749-6.119 34.936-10.509l9.396-39.781zm49.056-9.006-13.563 57.487h28.003l13.557-57.487zm40.773-32.823-21.304 90.31h28.012l21.286-90.31zm-6.885 8.277h-28.049l-4.823 21.023 29.851-7.431zm229.246 20.722c-11.379 0-20.953 5.168-27.546 13.176 1.047-4.214 2.247-9.057 2.259-9.057h-11.624l5.903-24.829h-27.976l-5.934 24.864-6.332.006 5.957-24.87h-27.987l-5.852 24.788-8.957.05-4.204 15.205c-3.103-13.217-15.543-19.434-27.259-19.434-16.613 0-29.312 10.924-34.598 25.653l12.857-54.551h-28l-21.283 90.31h27.994l6.087-25.816c-1.073 10.276 2.827 28.819 28.033 28.819 12.649 0 28.849-8.22 32.714-19.626l-21.873-3.822c-2.455 3.175-6.136 5.068-9.707 5.068-6.006 0-7.711-5.132-6.496-9.744l40.683-.048c.381-1.388 1.262-2.897 1.573-7.905.097-1.524.048-2.924-.03-4.322h7.813l-8.872 37.441h27.976l8.878-37.441h6.206l-8.791 37.441h27.996l8.894-37.441h7.582c-.024.07-.04.112-.04.112-1.357 3.344-2.334 6.907-2.842 10.611l-.004.015c-1.409 10.042 1.941 29.784 27.937 29.784 12.644 0 28.847-8.226 32.717-19.629l-21.885-3.834c-2.446 3.184-6.139 5.074-9.701 5.074-6.012 0-7.724-5.126-6.498-9.747l-.016-.015 40.691.015c.336-1.388 1.216-2.948 1.533-7.956 1.334-19.407-13.863-28.345-27.976-28.345m-135.25 24.753-15.478-.103c2.36-8.026 16.703-9.844 15.478.103m139.587.088-15.483-.03c2.368-8.024 16.699-9.91 15.483.03" fill="#031a46" fill-rule="nonzero" transform="matrix(.963226 0 0 .963226 95.9196 155)"/></svg>

<?xml version="1.0" encoding="UTF-8" standalone="no"?>
<!DOCTYPE svg PUBLIC "-//W3C//DTD SVG 1.1//EN" "http://www.w3.org/Graphics/SVG/1.1/DTD/svg11.dtd">
<svg width="100%" height="100%" viewBox="0 0 560 400" version="1.1" xmlns="http://www.w3.org/2000/svg" xmlns:xlink="http://www.w3.org/1999/xlink" xml:space="preserve" xmlns:serif="http://www.serif.com/" style="fill-rule:evenodd;clip-rule:evenodd;stroke-linejoin:round;stroke-miterlimit:1.41421;">
    <g transform="matrix(0.963226,0,0,0.963226,95.9196,155)">
        <path d="M41.968,41.829L37.399,61.019L53.051,61.019C51.536,71.316 26.164,75.755 30.035,50.822C32.757,33.384 54.587,23.982 59.413,37.481L86.381,30.724C82.496,13.941 67.643,5.638 51.315,5.638C28.847,5.629 3.584,21.344 0.267,52.274C-2.518,78.22 16.929,92.491 39.507,92.119C55.561,91.843 68.256,86 74.443,81.61L83.839,41.829L41.968,41.829ZM91.024,32.823L77.461,90.31L105.464,90.31L119.021,32.823L91.024,32.823ZM131.797,0L110.493,90.31L138.505,90.31L159.791,0L131.797,0ZM124.912,8.277L96.863,8.277L92.04,29.3L121.891,21.869L124.912,8.277ZM354.158,28.999C342.779,28.999 333.205,34.167 326.612,42.175C327.659,37.961 328.859,33.118 328.871,33.118L317.247,33.118L323.15,8.289L295.174,8.289L289.24,33.153L282.908,33.159L288.865,8.289L260.878,8.289L255.026,33.077L246.069,33.127L241.865,48.332C238.762,35.115 226.322,28.898 214.606,28.898C197.993,28.898 185.294,39.822 180.008,54.551L192.865,0L164.865,0L143.582,90.31L171.576,90.31L177.663,64.494C176.59,74.77 180.49,93.313 205.696,93.313C218.345,93.313 234.545,85.093 238.41,73.687L216.537,69.865C214.082,73.04 210.401,74.933 206.83,74.933C200.824,74.933 199.119,69.801 200.334,65.189L241.017,65.141C241.398,63.753 242.279,62.244 242.59,57.236C242.687,55.712 242.638,54.312 242.56,52.914L250.373,52.914L241.501,90.355L269.477,90.355L278.355,52.914L284.561,52.914L275.77,90.355L303.766,90.355L312.66,52.914L320.242,52.914C320.218,52.984 320.202,53.026 320.202,53.026C318.845,56.37 317.868,59.933 317.36,63.637L317.356,63.652C315.947,73.694 319.297,93.436 345.293,93.436C357.937,93.436 374.14,85.21 378.01,73.807L356.125,69.973C353.679,73.157 349.986,75.047 346.424,75.047C340.412,75.047 338.7,69.921 339.926,65.3L339.91,65.285L380.601,65.3C380.937,63.912 381.817,62.352 382.134,57.344C383.468,37.937 368.271,28.999 354.158,28.999M218.908,53.752L203.43,53.649C205.79,45.623 220.133,43.805 218.908,53.752M358.495,53.84L343.012,53.81C345.38,45.786 359.711,43.9 358.495,53.84" style="fill:rgb(3,26,70);fill-rule:nonzero;"/>
    </g>
</svg>
